X: 12042
T: Erin's Hope
R: reel
M: 4/4
K: Gmajor
dc|:(3BcB AG (3Bcd AG|FADA FADc
[1 (3BcB AG BdAG|FDEF GBdc:|2 (3BcB AG (3gfe dc|BdAF G2||
ef|:g2 gd BGBd|gfeg fgaf
[1 g2 gd (3Bcd AG|FADA FADf:|2 (3gab af gedc|BdAG FAdc||

